icon-themes/sifr_svg/cmd/lc_shadowcursor.svg

<svg viewBox="0 0 24 24" xmlns="http://www.w3.org/2000/svg"><g fill="#555753"><path d="m20 12.273438-1 .726562h-6l3 5-2.423433 2-2.080478-3-1.496089-3-2 4-3 2 2 2h1.779297l3.103515-3.353516-.146644 1.353516 1.709144 1.574219c1.338126 1.143002 2.469988 1.626588 3.554688 1.339073.590003-.191277.897955-.638273 1.271484-1.231648.373529-.593374.470713-1.4193.199219-2.189453l-1.652344-3.492191h5.181641v-1.726562z" opacity=".35"/><path d="m5 1v.5136719 18.4863281h1.779297l3.103515-3.353516 1.5618 2.92791c.361828.702173.913538 1.132511 1.453124 1.294918.615886.186712 1.249841.152211 1.839844-.03906.590003-.191277 1.159674-.555063 1.533203-1.148438.373529-.593374.470713-1.4193.199219-2.189453l-1.651643-3.492361h5.181641v-1.726562l-13.058594-11.273438zm2 3h.386719l9.15625 8h-4.806641l2.846955 6.166191c.09553.277334.0574.350815-.0059.451172-.06427.102095-.229812.236883-.457031.310547-.22722.07366-.493774.07245-.642578.02734-.09802-.03339-.160339-.08896-.183594-.138672-.945845-1.906757-1.908142-3.807079-2.864492-5.709156l-3.429688 3.708984z"/></g></svg>

<svg xmlns="http://www.w3.org/2000/svg" viewBox="0 0 24 24">
  <path
     style="fill:#555753;opacity:0.35"
     d="M 20,12.273438 19,13 h -6 l 3,5 -2.423433,2 L 11.496089,17 10,14 8,18 5,20 7,22 H 8.779297 L 11.882812,18.646484 11.736168,20 13.445312,21.574219 C 14.783438,22.717221 15.9153,23.200807 17,22.913292 c 0.590003,-0.191277 0.897955,-0.638273 1.271484,-1.231648 0.373529,-0.593374 0.470713,-1.4193 0.199219,-2.189453 L 16.818359,16 H 22 v -1.726562 z"
     />
  <path
     style="fill:#555753"
     d="M 5,1 V 1.5136719 20 h 1.779297 l 3.103515,-3.353516 1.5618,2.92791 c 0.361828,0.702173 0.913538,1.132511 1.453124,1.294918 0.615886,0.186712 1.249841,0.152211 1.839844,-0.03906 0.590003,-0.191277 1.159674,-0.555063 1.533203,-1.148438 0.373529,-0.593374 0.470713,-1.4193 0.199219,-2.189453 L 14.818359,14 H 20 V 12.273438 L 6.941406,1 Z m 2,3 h 0.386719 l 9.15625,8 h -4.806641 l 2.846955,6.166191 c 0.09553,0.277334 0.0574,0.350815 -0.0059,0.451172 -0.06427,0.102095 -0.229812,0.236883 -0.457031,0.310547 -0.22722,0.07366 -0.493774,0.07245 -0.642578,0.02734 -0.09802,-0.03339 -0.160339,-0.08896 -0.183594,-0.138672 -0.945845,-1.906757 -1.908142,-3.807079 -2.864492,-5.709156 L 7,16.816406 Z"
     />
</svg>
